X:3174
T:Colección Feij\'oo: N\'umero 44
O:Galicia (Spain)
B:Libro Aires da Terra, de J.L. Calle
Z:Transcrito por Jos\'e J. Presedo
Z:Covertido de Midi a abc por Antonio-Nil
N:http://www.arrakis.es/~jpresedo/
M: 4/4
L: 1/8
Q:1/4=100
K:D % 2 sharps
z2 z/2d/2d c/2Bc<dA/2-|A/2d/2d c/2Bc/2 A/2F<Dd/2d|c/2Bc<dAd/2d c/2Bc/2|A=c/2B=c/2[d/2G/2-]G/2 G/2G/2F/2E/2 BA|
^c/2d/2G G/2G/2E/2C/2 D2- D/2d/2d|c/2Bc<dAd/2d c/2Bc/2|A/2F<Dd/2d c/2Bc<dA/2-|A/2d/2d c/2Bc/2 A=c/2B=c/2[d/2G/2-]G/2|
G/2G/2F/2E/2 BA ^c/2d/2G G/2G/2E/2C/2|D3/2FD/2G E/2^GE/2 AE/2^A/2-|^A/2E/2B =A/2=G/2F/2E<DFD/2G|E/2^GE/2 AE/2^AE/2B =A/2=G/2F/2E/2|
D2- D/2d/2d c/2Bc<dA/2-|A/2d/2d c/2Bc/2 A/2F<Dd/2d|c/2Bc<dAd/2d c/2Bc/2|A=c/2B=c/2[d/2G/2-]G/2 G/2G/2F/2E/2 BA|
^c/2d/2G G/2G/2E/2C/2 D2- D/2d/2d|c/2Bc<dAd/2d c/2Bc/2|A/2F<Dd/2d c/2Bc<dA/2-|A/2d/2d c/2Bc/2 A=c/2B=c/2[d/2G/2-]G/2|
G/2G/2F/2E/2 BA ^c/2d/2G G/2G/2E/2C/2|D3/2FD/2G E/2^GE/2 AE/2^A/2-|^A/2E/2B =A/2=G/2F/2E<DFD/2G|E/2^GE/2 AE/2^AE/2B =A/2=G/2F/2E/2|
D


